X:87
T:Untitled. HA.086
M:3/4
L:1/8
Q:3/4=40
C:in Hand C
S:Henry Atkinson’s original MS,Hartburn,N’umberland,1694.
O:England
A:Hartburn,Northumberland
H:1/8
Z:vmp.Chris Partington.Jan.2004
K:Bb
“_As Writ”g3g a>b|d3d d>e|c3c c>d|B3F/G/F2|
g3g a>b|f3g (f/d/) “^cr”g|(fd)B3c|d4c2:|
|:A3A B>c|B3AG2|e2fd c>B|f6|
e3fg2|a2b2c’2|b>ag2^f>g|^f6|
(g^f) (gd) (cB)|(f=e) (fB) (AG)|e>dc>B (F/G/)E|F4(A/B/c)|
c3c c>d|e>dc>BA2|B>c A3G|G6:|

